d1 $ stack [
	s "sd@3 sd@5",
	whenmod 2 1 (within (0.5, 1) (stutWith 2 (1/32) id)) $
		s "hc*16" 
		# speed (range 1 2
		-- # release (range 0.0001 0.015 
			-- $ fast 8 (smooth "[0 1]/3 [0 1]/5"))
			( fast (8/"3@3 5@5") saw))
		# gain 0.8
		# cut 12
]

clutchIn 1 8 $ stack [
		s "[sd:0 hc:0]*128" 
		# speed (fast 2 (smooth "[0.1 1.2]/3 [0.1 1.9]/5"))
		-- # speed (fast 1 (smooth "[0.1 <9.2 0.5>]*8 [0.1 1.9]/5"))
		# release 0.006
		# gain 0.8
		# cut 12
]
