d1 $ ((sometimesBy 0.3 $ const (s "[808bd!7 808bd*<1 2>] 808bd!8" # up (-4))) $ 
	s "808bd!3 808bd*<1 2> 808bd!4"
) # n 6 # gain (slow 2 $ timeDog (range 1 0.5 $ saw) [7, 1, 8]) # shape 0.3

d2 $ s "~ 808" # n 3

d3 
	$ ((whenmod 4 3 
		$ const (s "808*12" 
			# end ((segment 4 $ irand 20) / 200) 
			# loop 20 
			# release 0.4)) 
	$ sometimesBy 0.1 (id . (|* speed (-1)) . ((3/64) <~)) $ s "808*16") 
	# n 1 
	# gain (range 0.3 1 $ fast 2 saw)

:t whenmod
