
d1 $ "808bd*4"
-- from the ~/tardline folder
-- see SuperDirtMidi.scd for how to load
-- should probably make it a startup script
d2 $ every 4 (
		within (0.5, 1) (const 
			$ n "[1@3 1@3 1@2]*2" 
			# s "tardline"
		))
	$ n "[1 3]*4" + up "[0 2]*4" # s "tardline"
